!!!COM: Mozart, Wolfgang Amadeus
!!!OPR: Quartet in B-flat Major
!!!OTL: Andante
!!!OMV: 1
!!!SCT: K 159
!!!SCA: Chronologisch-thematisches Verzeichnis sämtlicher Tonwerke Wolfgang Amade Mozarts (L. von Köchel; 1862, 2/1905, 3/1937, 1947)
!!!YOR: Breitkopf & Härtel Edition
!!!EED: Edmund Correia, Jr.
!!!ENC: Edmund Correia, Jr.
!!!CDT: 1756/1/27/-1791/12/5/
!!!OCY: Österreich
!!!YEC: Copyright (c) 1994, 2000 Center for Computer Assisted Research in the Humanities
!!!YEM: Rights to all derivative editions reserved.
!!!YEM: Refer to licensing agreement for further details.
!!!YEN: United States of America
**kern	**kern	**kern	**kern
*I:Violino 1	*I:Violino 2	*I:Viola	*I:Violoncello
*>[A,A,B,B]	*>[A,A,B,B]	*>[A,A,B,B]	*>[A,A,B,B]
*>A	*>A	*>A	*>A
*clefG2	*clefG2	*clefC3	*clefF4
*k[b-e-]	*k[b-e-]	*k[b-e-]	*k[b-e-]
*B-:	*B-:	*B-:	*B-:
*M4/4	*M4/4	*M4/4	*M4/4
! Andante	! Andante	! Andante	! Andante
*tb32	*tb32	*tb32	*tb32
=1-	=1-	=1-	=1-
1r	4ff'xx	(8dxx	(2B-xx
.	.	8f	.
.	4ff'	8d	.
.	.	8f)	.
.	4r	(8c	2A)
.	.	8f	.
.	(16.aa	8c	.
.	32ffk)	.	.
.	(16.aa	8f)	.
.	32ffk)	.	.
=2	=2	=2	=2
1r	4bb-'	(8B-	(2G
.	.	8d	.
.	4bb-'	8B-	.
.	.	8d)	.
.	4r	(8F	2D)
.	.	8B-	.
.	(16.ff	8d	.
.	32ddk)	.	.
.	(16.ff	8B-)	.
.	32ddk)	.	.
=3	=3	=3	=3
1r	4cc	(8G	(2E-
.	.	8B-	.
.	4cc	8G	.
.	.	8B-)	.
.	4r	(8A	2F)
.	.	8c)	.
.	(16.ee-	(8c	.
.	32cck)	.	.
.	(16.ee-	8e-)	.
.	32cck)	.	.
=4	=4	=4	=4
1r	4b-	(8d	4G
.	.	8B-	.
.	4b-	8d	4r
.	.	8B-)	.
!	! (32ggP/LLL	! (32e-P/LLL	!
!	! 32aaP/JJJ	! 32fP/JJJ	!
.	4.bb-	4.g	4E-
.	.	.	4G
.	16aa	16f	.
.	16gg	16e-	.
=5	=5	=5	=5
!	! 16ggP/	! 16e-P/	!
1r	8ff	8d	4B-
.	16ee-	16c	.
.	16dd	16B-	.
.	4dd	4B-	4r
!	! (32ggP/LLL	! (32e-P/LLL	!
!	! 32aaP/JJJ	! 32fP/JJJ	!
.	4.bb-	4.g	4E-
.	.	.	4G
.	16aa	16f	.
.	16gg	16e-	.
=6	=6	=6	=6
!	! 16ggP/	! 16e-P/	!
1r	8ff	8d	4B-
.	16ee-	16c	.
.	16dd	16B-	.
.	4dd	4B-	4r
.	(8.b-	(4B-	(4D
.	16fk)	.	.
.	(8.cc	4A)	4C)
.	16fk)	.	.
=7	=7	=7	=7
1r	8dd	8B-	4BB-
.	4ee-	4g	.
.	.	.	4B-
.	4dd	4f	.
.	.	.	4E-
.	4cc	4e-	.
.	.	.	4F
.	8a	8c	.
=8	=8	=8	=8
1r	(12b-	(12d	4BB-
.	12cc	12e-	.
.	12dd)	12f)	.
.	4dd	4f	4r
.	(8.b-	(4B-	(4D
.	16fk)	.	.
.	(8.cc	4A)	4C)
.	16fk)	.	.
=9	=9	=9	=9
4ff'xx	8dd	8B-	4BB-
.	4ee-	4A	.
4ff'	.	.	4B-
.	4dd	4B-	.
4r	.	.	4F
.	4cc	4e-	.
(16.aa	.	.	4FF
32ffk)	.	.	.
(16.aa	8a	8c	.
32ffk)	.	.	.
=10	=10	=10	=10
4bb-'	8en	8c	8GG
.	8e	8c	8GG
4bb-'	8e	8c	8GG
.	8e	8c	8GG
4r	8e	8c	8G
.	8e	8c	8G
(16.bb-	8e	8c	8G
32ggk)	.	.	.
(16.bb-	8e	8c	8G
32ggk)	.	.	.
=11	=11	=11	=11
4een'	8g	8B-	8C
.	8g	8B-	8C
4ee'	8g	8B-	8C
.	8g	8B-	8C
4r	8en	8G	8C
.	8e	8G	8C
(16.gg	8e	8G	8C
32eek)	.	.	.
(16.gg	8e	8G	8C
32b-k)	.	.	.
=12	=12	=12	=12
4a	(8f	4F	4F
.	8c)	.	.
4a	(8f	4r	4r
.	8c)	.	.
! (32ddP/LLL	! (32dP/LLL	! (32B-P/LLL	!
! 32eenP/JJJ	! 32enP/JJJ	! 32cP/JJJ	!
4.ff	4.f	4.d	4BB-
.	.	.	4D
16een	16en	16c	.
16dd	16d	16B-	.
=13	=13	=13	=13
! 16ddP/	! 16dP/	! 16B-P/	!
8cc	8c	8A	4F
16b-	16B-	16G	.
16a	16A	16F	.
4a	4A	4F	4r
! (32ddP/LLL	! (32dP/LLL	! (32B-P/LLL	!
! 32eenP/JJJ	! 32enP/JJJ	! 32cP/JJJ	!
4.ff	4.f	4.d	4BB-
.	.	.	4D
16een	16en	16c	.
16dd	16d	16B-	.
=14	=14	=14	=14
! 16ddP/	! 16dP/	! 16B-P/	!
8cc	8c	8A	4F
16b-	16B-	16G	.
16a	16A	16F	.
4a	4A	4F	4r
(8.ff	(8.A	(8.f	4F
16cck)	16ck)	16ck)	.
(8.gg	(8.en	(8.g	4C
16cck)	16ck)	16ck)	.
=15	=15	=15	=15
(4.aa	8f	(4.a	4r
.	(4cc	.	.
.	.	.	4F
16gg	16b-	16g	.
16aa	16cc	16a	.
8bb-)	8dd)	8b-)	(4.BB-
8aa'	8cc'	8a'	.
8gg'	8b-'	8g'	.
8ff'	8a'	8f'	8BBn)
=16	=16	=16	=16
! 16ffP/	! 16aP/	! 16fP/	!
8een	8g	8en	4C
16dd	16f	16d	.
16cc	16en	16c	.
4cc	4e	4c	4r
(8cc#	(8c#	2r	2r
8dd)	8d)	.	.
(8cc#	(8c#	.	.
8dd)	8d)	.	.
=17	=17	=17	=17
(8.g	(8.G	(8.En	4C
32a	32A	32F	.
32b-)	32B-)	32G)	.
4a'	4A'	4F'	4FF
(8cc#	(8c#	2r	2r
8dd)	8d)	.	.
(16cc#	(16c#	.	.
16dd)	16d)	.	.
(16cc#	(16c#	.	.
16dd)	16d)	.	.
=18	=18	=18	=18
(8.g	(8.G	(8.En	4CC
32a	32A	32F	.
32b-)	32B-)	32G)	.
4a'	4A'	4F'	4FF
8.ccn	8.A	2r	2r
32dd	32B-	.	.
32een	32cn	.	.
16ff'	16d'	.	.
16gg'	16en'	.	.
16aa'	16f'	.	.
16bb-'	16g'	.	.
=19	=19	=19	=19
8ccc'	8a'	1r	1r
(16bb-	(16g	.	.
32ccc	32a	.	.
32bb-	32g	.	.
8aa)	8f)	.	.
(16gg	(16e-	.	.
32aa	32f	.	.
32gg	32e-	.	.
8ff)	8d)	.	.
(16ee-	(16c	.	.
32ff	32d	.	.
32ee-	32c	.	.
8dd)	8B-)	.	.
(8cc#	(8A	.	.
=20	=20	=20	=20
4dd)	4B-)	2r	2r
4r	4r	.	.
(4g	(4en	2c	(4B-
4a)	4f)	.	4A)
=21	=21	=21	=21
8b-	8g	8r	8G
(4dd	(4b-	(4g	(4En
8cc)	8a)	8c)	8F)
8r	8r	(4d	(4BB-
(8b-	(8g	.	.
8a	8f	4c)	4C)
8g)	8en)	.	.
=22	=22	=22	=22
(4g#	(4en	2c	2F
4a)	4f)	.	.
(4gn	(4e	2c	(4B-
4a)	4f)	.	4A)
=23	=23	=23	=23
8b-	8g	8r	8G
(4dd	(4b-	(4g	(4En
8cc)	8a)	8c)	8F)
8r	8r	(4d	(4BB-
(8b-	(8g	.	.
8a	8f	4c)	8C
8g)	8en)	.	8BB-)
=24	=24	=24	=24
8r	8r	8r	4AA
(4aa	(4a	(4f	.
.	.	.	4r
8ff)	8f)	8c)	.
8r	8r	8r	4BB-
(4ff	(4f	(4d	.
.	.	.	4r
8dd)	8d)	8B-)	.
=25	=25	=25	=25
(8.cc	(8.c	(8.A	2C
32dd	32d	32B-	.
32b-)	32B-)	32G)	.
8a'	8A'	8F'	.
8a'	8A'	8F'	.
8r	8r	8r	2CC
(8a	(8A	(8F	.
8b-	8B-	8G	.
8g)	8G)	8En)	.
=26	=26	=26	=26
8r	8r	8r	4AA
(4aa	(4a	(4f	.
.	.	.	4r
8ff)	8f)	8c)	.
8r	8r	8r	4BB-
(4ff	(4f	(4d	.
.	.	.	4r
8dd)	8d)	8B-)	.
=27	=27	=27	=27
(8.cc	(8.c	(8.A	2C
32dd	32d	32B-	.
32b-)	32B-)	32G)	.
8a'	8A'	8F'	.
8a'	8A'	8F'	.
8r	8r	8r	2CC
(8a	(8A	(8F	.
8b-	8B-	8G	.
8g)	8G)	8En)	.
=28	=28	=28	=28
(8f	8A	(8F	(8FF
8en	8r	8En	8EEn
8f	(8f	8F	8FF
8g	8g	8G	8GG
8a	8a	8A	8AA
8b-	8b-	8B-	8BB-
8cc	8cc	8c	8C
8dd)	8dd)	8d)	8D)
=29	=29	=29	=29
8ee-'	8ee-'	8e-'	8E-'
8r	8r	8r	8r
8cc'	8cc'	8c'	8C'
8r	8r	8r	8r
8a'	8a'	8A'	8AA'
8r	8r	8r	8r
4r	4r	4r	4r
=30:!!:	=30:!!:	=30:!!:	=30:!!:
*>B	*>B	*>B	*>B
8aa'	8ff#'	4d	4D
(16gg	(16ee-	.	.
32aa	32ffn	.	.
32gg	32ee-	.	.
8ff#)	8dd)	4r	4r
(16ee-	(16cc	.	.
32ffn	32dd	.	.
32ee-	32cc	.	.
8dd)	8b-)	2r	2r
(16cc	(16a	.	.
32dd	32b-	.	.
32cc	32a	.	.
8b-)	8g)	.	.
(16a	(16f#	.	.
32b-	32g	.	.
32a	32f#	.	.
=31	=31	=31	=31
4b-)	4g)	8B-'	8GG'
.	.	(16c	(16AA
.	.	32d	32BB-
.	.	32c	32AA
4r	4r	8d)	8BB-)
.	.	(16e-	(16C
.	.	32f	32D
.	.	32e-	32C
2r	2r	8f#)	8D)
.	.	(16g	(16E-
.	.	32a	32F
.	.	32g	32E-
.	.	8a)	8F#)
.	.	8b-'	8G'
=32	=32	=32	=32
8gg'	8een'	4g	4C
(16ffn	(16dd	.	.
32gg	32ee	.	.
32ff	32dd	.	.
8een)	8cc)	4r	4r
(16dd	(16b-	.	.
32ee	32cc	.	.
32dd	32b-	.	.
8cc)	8a)	2r	2r
(16b-	(16g	.	.
32cc	32a	.	.
32b-	32g	.	.
8a)	8fn)	.	.
(16g	(16en	.	.
32a	32f	.	.
32g	32e	.	.
=33	=33	=33	=33
4a)	4f)	8A'	8FF'
.	.	(16B-	(16GG
.	.	32c	32AA
.	.	32B-	32GG
4r	4r	8c)	8AA)
.	.	(16d	(16BB-
.	.	32en	32C
.	.	32d	32BB-
2r	2r	8e)	8C)
.	.	(16fn	(16D
.	.	32g	32En
.	.	32f	32D
.	.	8g)	8E)
.	.	8a'	8Fn'
=34	=34	=34	=34
8ff'	8dd'	4d	4BB-
(16ee-	(16cc	.	.
32ff	32dd	.	.
32ee-	32cc	.	.
8dd)	8b-)	4r	4r
(16cc	(16a-	.	.
32dd	32b-	.	.
32cc	32a-	.	.
8b-)	8g)	2r	2r
(16a-	(16f	.	.
32b-	32g	.	.
32a-	32f	.	.
8g)	8e-)	.	.
(8f#	(8d	.	.
=35	=35	=35	=35
4g)	4e-)	8r	8r
.	.	(8g	(8E-
4r	4r	8f#	8D
.	.	8g)	8E-)
(8ff#	(8f#	2r	2r
8gg)	8g)	.	.
(8ff#	(8f#	.	.
8gg)	8g)	.	.
=36	=36	=36	=36
(8.bn	(8.Bn	(4A-	(4F
32cc	32c	.	.
32dd)	32d)	.	.
4cc	4c	4G)	4E-)
(8een	(8en	2r	2r
8ffn)	8fn)	.	.
(8ee	(8e	.	.
8ff)	8f)	.	.
=37	=37	=37	=37
(8.a	(8.A	(4c	(4E-
32b-	32B-	.	.
32cc)	32c)	.	.
4b-'	4B-'	4F)	4D)
(4c	(4A	2F	(4E-
4d)	4Bn)	.	4D)
=38	=38	=38	=38
8e-	8c	8r	8C
(4g	(4e-	(4c	(4AA
8fn)	8d)	8d)	8BB-)
8r	8r	2G	(4.E-
(8f	(8d	.	.
8e-	8c	.	.
8d)	8B-)	.	8En)
=39	=39	=39	=39
8c	8A	8A	4F
(4ff	(4cc	(4a	.
.	.	.	4r
8cc)	8a)	8f)	.
8r	8r	8r	4FF
(4ff	(4dd	(4b-	.
.	.	.	4r
8dd)	8b-)	8f)	.
=40	=40	=40	=40
(8.cc	(8.a	4f	(2F
32dd	32b-	.	.
32cc)	32a)	.	.
8a'	8f'	(2c	.
8a'	8f'	.	.
8r	8r	.	2C)
(8a	(8f	.	.
8b-	8g	4B-)	.
8g)	8en)	.	.
=41	=41	=41	=41
8r	8r	8A	4FF
(4ff	(4cc	(4a	.
.	.	.	4r
8cc)	8a)	8f)	.
8r	8r	8r	4F
(4ff	(4dd	(4b-	.
.	.	.	4r
8dd)	8b-)	8f)	.
=42	=42	=42	=42
(8.cc	(8.a	4f	(2FF
32dd	32b-	.	.
32b-)	32a)	.	.
8a'	8f'	(2c	.
8a'	8f'	.	.
8r	8r	.	2CC)
(8a	(8f	.	.
8b-	8g	4B-)	.
8g)	8en)	.	.
=43	=43	=43	=43
(8f	(8f	4A	(8FF
8en	8en	.	8EEn
8f	8f	(8F	8FF
8g	8g	8G	8GG
8a	8a	8A	8AA
8b-	8b-	8B-	8BB-
8cc	8cc	8c	8C
8dd)	8dd)	8d)	8D)
=44	=44	=44	=44
8ee-'	8ee-'	8e-'	8E-'
8r	8r	8r	8r
8cc'	8cc'	8c'	8C'
8r	8r	8r	8r
8a'	8a'	8A'	8AA'
8r	8r	8r	8r
4r	4r	4r	4r
=45	=45	=45	=45
1r	4ff'	(8d	(2B-
.	.	8f	.
.	4ff'	8d	.
.	.	8f)	.
.	4r	(8c	2A)
.	.	8f	.
.	(16.aa	8c	.
.	32ffk)	.	.
.	(16.aa	8f)	.
.	32ffk)	.	.
=46	=46	=46	=46
1r	4bb-'	(8B-	(2G
.	.	8d	.
.	4bb-'	8B-	.
.	.	8d)	.
.	4r	(8F	2D)
.	.	8B-	.
.	(16.ff	8d	.
.	32ddk)	.	.
.	(16.ff	8B-)	.
.	32ddk)	.	.
=47	=47	=47	=47
1r	4cc'	(8G	(2E-
.	.	8B-	.
.	4cc'	8G	.
.	.	8B-)	.
.	4r	(8A	2F)
.	.	8c)	.
.	(16.ee-	(8c	.
.	32cck)	.	.
.	(16.ee-	8e-)	.
.	32cck)	.	.
=48	=48	=48	=48
1r	4b-'	(8d	4G
.	.	8B-	.
.	4b-'	8d	4r
.	.	8B-)	.
!	! (32ggP/LLL	! (32e-P/LLL	!
!	! 32aaP/JJJ	! 32fP/JJJ	!
.	4.bb-	4.g	4E-
.	.	.	4G
.	16aa	16f	.
.	16gg	16e-	.
=49	=49	=49	=49
!	! 16ggP/	! 16e-P/	!
1r	8ff	8d	4B-
.	16ee-	16c	.
.	16dd	16B-	.
.	4dd	4B-	4r
!	! (32ggP/LLL	! (32e-P/LLL	!
!	! 32aaP/JJJ	! 32fP/JJJ	!
.	4.bb-	4.g	4E-
.	.	.	4G
.	16aa	16f	.
.	16gg	16e-	.
=50	=50	=50	=50
!	! 16ggP/	! 16e-P/	!
1r	8ff	8d	4B-
.	16ee-	16c	.
.	16dd	16B-	.
.	4dd	4B-	4r
.	(8.b-	(4B-	(4D
.	16fk)	.	.
.	(8.cc	4A)	4C)
.	16fk)	.	.
=51	=51	=51	=51
1r	8dd	8B-	4BB-
.	4ee-	4g	.
.	.	.	4B-
.	4dd	4f	.
.	.	.	4E-
.	4cc	4e-	.
.	.	.	4F
.	8a	8c	.
=52	=52	=52	=52
4bb-'	(12b-	(12d	(4B-
.	12cc	12e-	.
.	12dd)	12f)	.
4bb-'	4dd	4f	4A-
4r	(12ee-	(12g	4G
.	12ff	12a-	.
.	12gg)	12b-)	.
(16.bb-	4gg	4b-	4E-)
32ggk)	.	.	.
(16.ccc	.	.	.
32bb-k)	.	.	.
=53	=53	=53	=53
4aa-	8cc	8f	4F
.	8cc	8f	.
(16.ff	8cc	8f	4A-
32cck)	.	.	.
(16.ff	8cc	8f	.
32ee-k)	.	.	.
4dd	8b-	8f	4B-
.	8b-	8f	.
(16.a-	8b-	8f	4D
32fk)	.	.	.
(16.b-	8b-	8f	.
32a-k)	.	.	.
=54	=54	=54	=54
4g	(8b-	(8g	4E-
.	8g)	8e-)	.
4g	(8e-	(8B-	4r
.	8B-)	8G)	.
! (32ccP/LLL	! (32cP/LLL	! (32A-P/LLL	!
! 32ddP/JJJ	! 32dP/JJJ	! 32B-P/JJJ	!
4.ee-	4.e-	4.c	4AA-
.	.	.	4C
16dd	16d	16B-	.
16cc	16c	16A-	.
=55	=55	=55	=55
! 16ccP/	! 16cP/	! 16A-P/	!
8b-	8B-	8G	4E-
16a-	16A-	16F	.
16g	16G	16E-	.
4g	4G	4E-	4r
! (32ccP/LLL	! (32cP/LLL	! (32A-P/LLL	!
! 32ddP/JJJ	! 32dP/JJJ	! 32B-P/JJJ	!
4.ee-	4.e-	4.c	4AA-
.	.	.	4C
16dd	16d	16B-	.
16cc	16c	16A-	.
=56	=56	=56	=56
! 16ccP/	! 16cP/	! 16A-P/	!
8b-	8B-	8G	4E-
16a-	16A-	16F	.
16g	16G	16E-	.
4g	4G	4E-	4r
(8.ee-	(4B-	[2B-	(4G
16b-k)	.	.	.
(8.ff	4d)	.	4F)
16b-k)	.	.	.
=57	=57	=57	=57
(4.gg	(4.e-	4B-]	4E-
.	.	2E-	4E-
8aan)	8f)	.	.
(12bb-'	(12g'	.	4E-
12aa'	12f'	.	.
12gg'	12e-'	.	.
12ff'	12d'	4G	(8E-
12ee-'	12c'	.	.
.	.	.	8En)
12dd')	12B-')	.	.
=58	=58	=58	=58
(8.ddt	(8.B-T	2F	4F
32cc	32An	.	.
32dd)	32B-)	.	.
4cc	4A	.	4FF
(8ff#	(8f#	2r	2r
8gg)	8g)	.	.
(8ff#	(8f#	.	.
8gg)	8g)	.	.
=59	=59	=59	=59
(8.cc	(8.c	(8.An	4F
32dd	32d	32B-	.
32ee-)	32e-)	32c)	.
4dd'	4d'	4B-'	4BB-
(8ff#	(8f#	2r	2r
8gg)	8g)	.	.
(16ff#	(16f#	.	.
16gg)	16g)	.	.
(16ff#	(16f#	.	.
16gg)	16g)	.	.
=60	=60	=60	=60
(8.cc	(8.c	(8.A	4FF
32dd	32d	32B-	.
32ee-)	32e-)	32c)	.
4dd'	4d'	4B-'	4BB-
8.dd	8.B-	2r	2r
32ee-	32c	.	.
32ffn	32d	.	.
16gg'	16e-'	.	.
16aa'	16fn'	.	.
16bb-'	16g'	.	.
16ccc'	16a'	.	.
=61	=61	=61	=61
8ddd'	8b-'	1r	1r
(16ccc	(16a	.	.
32ddd	32b-	.	.
32ccc	32a	.	.
8bb-)	8g)	.	.
(16aa	(16f	.	.
32bb-	32g	.	.
32aa	32f	.	.
8gg)	8e-)	.	.
(16ff	(16d	.	.
32gg	32e-	.	.
32ff	32d	.	.
8ee-)	8c)	.	.
(8dd	(8Bn	.	.
=62	=62	=62	=62
4ee-)	4c)	2r	2r
4r	4r	.	.
(4c	(4A	2F	(4E-
4d)	4B-)	.	4D)
=63	=63	=63	=63
8e-	8c	8r	8C
(4g	(4e-	(4c	(4AA
8f)	8d)	8F)	8BB-)
8r	8r	(4G	(4EE-
(8e-	(8c	.	.
8d	8B-	4F)	4FF)
8c)	8A)	.	.
=64	=64	=64	=64
(4c#	(4A	2F	2BB-
4d)	4B-)	.	.
(4cc	(4a	2f	(4e-
4dd)	4b-)	.	4d)
=65	=65	=65	=65
8ee-	8cc	8r	8c
(4gg	(4ee-	(4cc	(4A
8ff)	8dd)	8f)	8B-)
8r	8r	(4g	(4E-
(8ee-	(8cc	.	.
8dd	8b-	8f	4F)
8cc)	8a)	8e-)	.
=66	=66	=66	=66
8r	8r	8d	4BB-
(4bb-	(4b-	(4f	.
.	.	.	4r
8ff)	8f)	8d)	.
8r	8r	8r	4E-
(4bb-	(4b-	(4g	.
.	.	.	4r
8gg)	8g)	8e-)	.
=67	=67	=67	=67
(8.ff	(8.f	(8.d	2F
32gg	32g	32e-	.
32ee-)	32e-)	32c)	.
8dd'	8d'	8B-'	.
8dd'	8d'	8B-'	.
8r	8r	8r	2FF
(8dd	(8d	(8B-	.
8ee-	8e-	8c	.
8cc)	8c)	8A)	.
=68	=68	=68	=68
8r	8r	8r	4BB-
(4b-	(4f	(4d	.
.	.	.	4r
8f)	8d)	8B-)	.
8r	8r	8r	4E-
(4b-	(4g	(4e-	.
.	.	.	4r
8g)	8e-)	8B-)	.
=69	=69	=69	=69
(8.f	(8.d	4B-	2F
32g	32e-	.	.
32e-)	32c)	.	.
8d'	8B-'	(2F	.
8d'	8B-'	.	.
8r	8r	.	2FF
(8d	(8B-	.	.
8e-	8c	4E-)	.
8c)	8A)	.	.
=70	=70	=70	=70
(8B-	(8B-	4D	(8BB-
8A	8A	.	8AA
8B-	8B-	(8B-	8BB-
8c	8c	8c	8C
8d	8d	8d	8D
8e-	8e-	8e-	8E-
8f	8f	8f	8F
8d)	8d)	8d)	8D)
=71	=71	=71	=71
8B-'	8B-'	8B-'	8BB-'
8r	8r	8r	8r
8d'	8d'	8d'	8D'
8r	8r	8r	8r
8B-'	8B-'	8B-'	8BB-'
8r	8r	8r	8r
4r	4r	4r	4r
==:|!	==:|!	==:|!	==:|!
*-	*-	*-	*-
!!!RWG: Appoggiaturas of spine 'Violino 1' need manual editing in measures: 12, 13, 13, 14, 16, 54, 55, 55, 56
!!!RWG: Appoggiaturas of spine 'Violino 2' need manual editing in measures: 4, 5, 5, 6, 12, 13, 13, 14, 16, 48, 49, 49, 50, 54, 55, 55, 56
!!!RWG: Appoggiaturas of spine 'Viola' need manual editing in measures: 4, 5, 5, 6, 12, 13, 13, 14, 16, 48, 49, 49, 50, 54, 55, 55, 56
!!!RWG: Key is interpreted using the Humdrum key tool.
!!!AFT: stage2
!!!END: 1994/06/13
!!format changes:
!!content changes:
!!public access: complete
!!!KEY: 1309059632
!!!EMD: Converted from MuseData to Humdrum Dec 16, 2000, by Andreas Kornstaedt using muse2kern.
